icon-themes/breeze_svg/svx/res/marker-elli9x11-4.svg

<svg height="11" viewBox="0 0 9 11" width="9" xmlns="http://www.w3.org/2000/svg"><path d="m4.5 0c-2.485281 0-4.5 2.4624-4.5 5.5 0 3.0375 2.014719 5.5 4.5 5.5s4.5-2.4625 4.5-5.5c0-3.0376-2.014719-5.5-4.5-5.5zm0 1c1.932997 0 3.5 2.0147 3.5 4.5s-1.567003 4.5-3.5 4.5-3.5-2.0147-3.5-4.5 1.567003-4.5 3.5-4.5z" fill="#fff"/><ellipse cx="4.5" cy="5.50001" fill="#da4453" rx="3.5" ry="4.49999"/></svg>

<?xml version="1.0" encoding="UTF-8" standalone="no"?>
<svg
   xmlns:dc="http://purl.org/dc/elements/1.1/"
   xmlns:cc="http://creativecommons.org/ns#"
   xmlns:rdf="http://www.w3.org/1999/02/22-rdf-syntax-ns#"
   xmlns:svg="http://www.w3.org/2000/svg"
   xmlns="http://www.w3.org/2000/svg"
   xmlns:sodipodi="http://sodipodi.sourceforge.net/DTD/sodipodi-0.dtd"
   xmlns:inkscape="http://www.inkscape.org/namespaces/inkscape"
   id="svg8856"
   version="1.1"
   viewBox="0 0 9 11"
   height="11"
   width="9"
   sodipodi:docname="marker-elli9x11-4.svg"
   inkscape:version="0.92pre3 r">
  <sodipodi:namedview
     pagecolor="#ffffff"
     bordercolor="#666666"
     borderopacity="1"
     objecttolerance="20"
     gridtolerance="10000"
     guidetolerance="10"
     inkscape:pageopacity="0"
     inkscape:pageshadow="2"
     inkscape:window-width="1600"
     inkscape:window-height="1671"
     id="namedview8428"
     showgrid="true"
     inkscape:snap-grids="true"
     inkscape:snap-page="false"
     showguides="true"
     inkscape:snap-text-baseline="false"
     inkscape:snap-to-guides="true"
     inkscape:pagecheckerboard="false"
     inkscape:showpageshadow="false"
     inkscape:zoom="20.082024"
     inkscape:cx="10.621665"
     inkscape:cy="-3.2272703"
     inkscape:window-x="1600"
     inkscape:window-y="55"
     inkscape:window-maximized="0"
     inkscape:current-layer="svg8856">
    <inkscape:grid
       type="xygrid"
       id="grid13502"
       empspacing="5" />
  </sodipodi:namedview>
  <defs
     id="defs8850" />
  <metadata
     id="metadata8853">
    <rdf:RDF>
      <cc:Work
         rdf:about="">
        <dc:format>image/svg+xml</dc:format>
        <dc:type
           rdf:resource="http://purl.org/dc/dcmitype/StillImage" />
        <dc:title></dc:title>
      </cc:Work>
    </rdf:RDF>
  </metadata>
  <path
     inkscape:connector-curvature="0"
     style="color:#000000;display:inline;overflow:visible;visibility:visible;fill:#ffffff;fill-opacity:1;fill-rule:nonzero;stroke:none;stroke-width:1;marker:none;enable-background:accumulate"
     d="M 4.5,0 C 2.014719,0 0,2.4624 0,5.5 0,8.5375 2.014719,11 4.5,11 6.985281,11 9,8.5375 9,5.5 9,2.4624 6.985281,0 4.5,0 Z m 0,1 C 6.432997,1 8,3.0147 8,5.5 8,7.9853 6.432997,10 4.5,10 2.567003,10 1,7.9853 1,5.5 1,3.0147 2.567003,1 4.5,1 Z"
     id="path4331-0-63-3" />
  <ellipse
     style="color:#000000;display:inline;overflow:visible;visibility:visible;fill:#da4453;fill-opacity:1;fill-rule:nonzero;stroke:none;stroke-width:1.8973645;marker:none;enable-background:accumulate"
     id="path4182-3-9-6-0"
     cx="4.5"
     cy="5.50001"
     rx="3.5"
     ry="4.49999" />
</svg>
